X:5
T:Condensed Exercise V - Ascending Arpeggios
C:Grossi Method
S:November 10, 1951
M:4/4
L:1/8
Q:1/4=80
K:C
%%text Scale-tone arpeggios ascending, simile
CEGc DFAd|EGBe FAcf|GBdg Acea|Bdfb cegc'|
c'gec bfdB|aecA gdBG|fcAF eBGE|dAFD cGEC|C8|]
